!! 00000] TT[00
!! NN
!!!OTL: Xi qing fengshou hao renao
!!!ARE: Asia, China,ÿHubei, Jiangling
!! Ethnic Group: Han
!! I, 389
!!!SCT: C0106
!!!YEM: Copyright 1995, estate of Helmut Schaffrath.
**kern
*ICvox
*Ivox
*M2/4
*k[]
*C:
{8.g
16g
8g
8a
=1
8cc
4dd
8a}
=2
{8cc
8dd
16cc
16dd
8a
=3
4.g
8a}
=4
{8dd
8dd
8cc
8dd
=5
4g
4a}
=6
{8.dd
16cc
8a
8a
=7
8g
4.g}
=8
{8.g
16g
8g
8a
=9
8cc
4dd
8a}
=10
{8cc
8dd
16cc
16dd
8a
=11
4.g
8a}
=12
{8dd
8dd
8cc
8dd
=13
4g
4a}
=14
{8.dd
16cc
8a
8a
=15
8g
4.g}
==
!!!AGN: Shange, Tiange, Chuan haozi, laba diao. Xin minge
!! 4 Saetze pro Strophe, dann ein kurzer Einschub in Klammern.
!!    Neues Volkslied. - Wer solche Lieder sang, musste es den ganzen
!!    Tag lang tun. Die Gutsbesitzer holten hierfuer auch, Vor-)
!!    Saenger und Trommler, um so die Feldarbeit "zu effektivieren".
!!    In seiner Kategorie ist dieses Lied sehr typisch.
!!    Der zweite Teil des Liedes folgt aus Platzgruenden im naechsten
!!    Dokument !!! Vor- und Nachspiel weggelassen. Neues Volkslied. - Wer solche
!!    Lieder sang, musste es den ganzen Tag lang tun.  In seiner Kategorie ist
!!    dieses Lied sehr typisch. !!!Dieses Lied war aus Platzgruenden auf 2
!!    Dokumente verteilt!!! Der erste Teil war im vorherigen Dokument. Vereinzelt
!!    Verzierungen.
!!!ONB: ESAC (Essen Associative Code) Database: CHINA
!!!AMT: simple duple
!!!AIN: vox
!!!EED: Helmut Schaffrath
!!!EEV: 1.0
*-
